;FLAVOR:Marlin
;TIME:2983
;Filament used: 0.902088m
;Layer height: 0.5
;MINX:-19.919
;MINY:-19.773
;MINZ:0.3
;MAXX:19.923
;MAXY:19.773
;MAXZ:17.8
;Generated with Cura_SteamEngine 4.13.1
M140 S60
M105
M190 S60
M104 S210
M105
M109 S210
M82 ;absolute extrusion mode
;FLAVOR:Marlin
M82 ;absolute extrusion mode
G21
G90
M82
M107 T0
G28
G92 E0
G0 E3 F200
G92 E0 ; reset extrusion distance
M106 S255 ; Enable cooling fan full speed
G1 X-98 Y0 Z0.4 F3000 ; move to arc start
G3 X0 Y-98 I98 Z0.4 E40 F400 ; lay arc stripe 90deg
G92 E0 ; reset extrusion distance
G4 P500 ; wait for 0.5 sec
G0 Z10 E-1 ; Lift 15mm and retract 1mm filament
G4 P2000 ; wait for 5 sec
G0 Z15
M107 ; Disable cooling fan
G1 X0 Y-85 Z4 E0 F3000 ; get off the bed
G92 E0
G92 E0
G1 F1500 E-6.5
;LAYER_COUNT:36
;LAYER:0
M107
;MESH:vase.3mf
G0 F3600 X14.542 Y-12.881 Z0.3
;TYPE:WALL-OUTER
G1 F1500 E0
G1 F300 X18.865 Y-4.644 E0.4641
G1 X19.43 Y0.00 E0.6975
G1 X18.865 Y4.644 E0.9309
G1 X14.542 Y12.881 E1.395
G1 X6.889 Y18.164 E1.85895
G1 X-2.342 Y19.285 E2.32287
G1 X-11.035 Y15.989 E2.7867
G1 X-17.202 Y9.027 E3.2507
G1 X-19.427 Y0.00 E3.71454
G1 X-17.202 Y-9.027 E4.17838
G1 X-11.035 Y-15.989 E4.64239
G1 X-2.342 Y-19.285 E5.10621
G1 X6.889 Y-18.164 E5.57013
G1 X14.542 Y-12.881 E6.03408
G0 F3600 X14.634 Y-12.704
G0 X14.242 Y-12.613
;TYPE:SKIN
G1 F300 X18.485 Y-4.529 E6.48957
G1 X19.036 Y0.00 E6.71719
G1 X18.485 Y4.529 E6.94481
G1 X14.242 Y12.613 E7.4003
G1 X6.748 Y17.787 E7.85463
G1 X-2.295 Y18.885 E8.3091
G1 X-10.806 Y15.659 E8.76319
G1 X-16.847 Y8.838 E9.21777
G1 X-19.026 Y0.00 E9.6719
G1 X-16.847 Y-8.838 E10.12603
G1 X-10.806 Y-15.659 E10.58061
G1 X-2.295 Y-18.885 E11.0347
G1 X6.748 Y-17.787 E11.48918
G1 X14.242 Y-12.613 E11.94351
G0 F3600 X14.732 Y-11.288
G1 F300 X12.261 Y-13.76 E12.11788
G1 X12.191 Y-13.83
G0 F3600 X10.434 Y-15.021
G1 F300 X15.357 Y-10.098 E12.46523
G1 X15.427 Y-10.028
G0 F3600 X15.982 Y-8.907
G1 F300 X8.606 Y-16.283 E12.98564
G1 X8.536 Y-16.353
G0 F3600 X6.778 Y-17.546
G1 F300 X16.607 Y-7.717 E13.67913
G1 X16.677 Y-7.647
G0 F3600 X17.232 Y-6.526
G1 F300 X6.072 Y-17.686 E14.46653
G0 F3600 X5.428 Y-17.764
G1 F300 X17.857 Y-5.335 E15.34346
G1 X17.927 Y-5.265
G0 F3600 X18.33 Y-4.297
G1 F300 X4.784 Y-17.842 E16.29917
G0 F3600 X4.14 Y-17.92
G1 F300 X18.408 Y-3.652 E17.30586
G0 F3600 X18.487 Y-3.008
G1 F300 X3.497 Y-17.998 E18.36348
G0 F3600 X2.853 Y-18.077
G1 F300 X18.565 Y-2.364 E19.47208
G0 F3600 X18.643 Y-1.721
G1 F300 X2.209 Y-18.154 E20.63156
G0 F3600 X1.565 Y-18.233
G1 F300 X18.722 Y-1.076 E21.84208
G0 F3600 X18.8 Y-.432
G1 F300 X0.922 Y-18.311 E23.1035
G0 F3600 X0.277 Y-18.389
G1 F300 X18.833 Y0.165 E24.41266
G0 F3600 X18.771 Y0.669
G1 F300 X-.365 Y-18.467 E25.7628
G0 F3600 X-1.009 Y-18.545
G1 F300 X18.71 Y1.174 E27.15409
G0 F3600 X18.649 Y1.678
G1 F300 X-1.653 Y-18.623 E28.58647
G0 F3600 X-2.288 Y-18.693
G1 F300 X18.587 Y2.182 E30.05931
G0 F3600 X18.526 Y2.687
G1 F300 X-2.698 Y-18.537 E31.55678
G0 F3600 X-3.109 Y-18.382
G1 F300 X18.465 Y3.191 E33.07891
G0 F3600 X18.403 Y3.696
G1 F300 X-3.519 Y-18.227 E34.62566
G0 F3600 X-3.929 Y-18.071
G1 F300 X18.342 Y4.2 E36.197
G0 F3600 X18.22 Y4.644
G1 F300 X-4.339 Y-17.915 E37.78865
G0 F3600 X-4.749 Y-17.76
G1 F300 X18.026 Y5.015 E39.39555
G0 F3600 X17.831 Y5.386
G1 F300 X-5.16 Y-17.605 E41.01769
G0 F3600 X-5.57 Y-17.449
G1 F300 X17.636 Y5.757 E42.655
G0 F3600 X17.441 Y6.127
G1 F300 X-5.98 Y-17.294 E44.30748
G0 F3600 X-6.39 Y-17.138
G1 F300 X17.247 Y6.499 E45.9752
G0 F3600 X17.052 Y6.87
G1 F300 X-6.8 Y-16.983 E47.65812
G0 F3600 X-7.211 Y-16.827
G1 F300 X16.857 Y7.24 E49.35621
G0 F3600 X16.662 Y7.612
G1 F300 X-7.621 Y-16.672 E51.06954
G0 F3600 X-8.032 Y-16.517
G1 F300 X16.468 Y7.983 E52.79815
G0 F3600 X16.273 Y8.353
G1 F300 X-8.442 Y-16.361 E54.54189
G0 F3600 X-8.852 Y-16.206
G1 F300 X16.078 Y8.724 E56.30084
G0 F3600 X15.883 Y9.095
G1 F300 X-9.262 Y-16.05 E58.07496
G0 F3600 X-9.673 Y-15.895
G1 F300 X15.689 Y9.466 E59.86435
G0 F3600 X15.494 Y9.837
G1 F300 X-10.083 Y-15.74 E61.66894
G0 F3600 X-10.493 Y-15.584
G1 F300 X15.299 Y10.208 E63.48871
G0 F3600 X15.105 Y10.579
G1 F300 X-10.832 Y-15.357 E65.31867
G0 F3600 X-11.098 Y-15.057
G1 F300 X14.91 Y10.95 E67.15364
G0 F3600 X14.715 Y11.321
G1 F300 X-11.363 Y-14.758 E68.99362
G0 F3600 X-11.629 Y-14.458
G1 F300 X14.521 Y11.692 E70.83864
G0 F3600 X14.325 Y12.063
G1 F300 X-11.894 Y-14.157 E72.68857
G0 F3600 X-12.16 Y-13.857
G1 F300 X14.131 Y12.434 E74.54354
G0 F3600 X13.816 Y12.685
G1 F300 X-12.426 Y-13.558 E76.39509
G0 F3600 X-12.691 Y-13.257
G1 F300 X13.482 Y12.916 E78.24173
G0 F3600 X13.147 Y13.147
G1 F300 X-12.957 Y-12.957 E80.08351
G0 F3600 X-13.223 Y-12.657
G1 F300 X12.812 Y13.378 E81.92042
G0 F3600 X12.478 Y13.609
G1 F300 X-13.488 Y-12.357 E83.75246
G0 F3600 X-13.754 Y-12.057
G1 F300 X12.143 Y13.84 E85.57964
G0 F3600 X11.809 Y14.072
G1 F300 X-14.02 Y-11.757 E87.40201
G0 F3600 X-14.286 Y-11.457
G1 F300 X11.474 Y14.302 E89.21949
G0 F3600 X11.139 Y14.533
G1 F300 X-14.551 Y-11.157 E91.03205
G0 F3600 X-14.817 Y-10.857
G1 F300 X10.805 Y14.765 E92.83982
G0 F3600 X10.47 Y14.996
G1 F300 X-15.083 Y-10.557 E94.64273
G0 F3600 X-15.348 Y-10.257
G1 F300 X10.135 Y15.226 E96.44069
G0 F3600 X9.801 Y15.458
G1 F300 X-15.614 Y-9.957 E98.23385
G0 F3600 X-15.88 Y-9.657
G1 F300 X9.466 Y15.689 E100.02215
G0 F3600 X9.132 Y15.92
G1 F300 X-16.146 Y-9.357 E101.80562
G0 F3600 X-16.411 Y-9.057
G1 F300 X8.797 Y16.151 E103.58418
G0 F3600 X8.462 Y16.382
G1 F300 X-16.677 Y-8.757 E105.35787
G0 F3600 X-16.792 Y-8.307
G1 F300 X8.128 Y16.613 E107.11611
G0 F3600 X7.793 Y16.844
G1 F300 X-16.904 Y-7.853 E108.85862
G0 F3600 X-17.015 Y-7.399
G1 F300 X7.459 Y17.075 E110.58539
G0 F3600 X7.124 Y17.306
G1 F300 X-17.127 Y-6.945 E112.29643
G0 F3600 X-17.239 Y-6.491
G1 F300 X6.789 Y17.537 E113.99173
G0 F3600 X6.339 Y17.653
G1 F300 X-17.351 Y-6.037 E115.66319
G0 F3600 X-17.463 Y-5.584
G1 F300 X5.835 Y17.715 E117.30703
G0 F3600 X5.33 Y17.775
G1 F300 X-17.575 Y-5.13 E118.9231
G0 F3600 X-17.687 Y-4.676
G1 F300 X4.826 Y17.837 E120.51151
G0 F3600 X4.321 Y17.898
G1 F300 X-17.799 Y-4.222 E122.0722
G0 F3600 X-17.911 Y-3.768
G1 F300 X3.817 Y17.959 E123.60519
G0 F3600 X3.313 Y18.021
G1 F300 X-18.022 Y-3.314 E125.11049
G0 F3600 X-18.135 Y-2.861
G1 F300 X2.808 Y18.082 E126.58813
G0 F3600 X2.304 Y18.143
G1 F300 X-18.246 Y-2.407 E128.03804
G0 F3600 X-18.358 Y-1.953
G1 F300 X1.799 Y18.204 E129.46023
G0 F3600 X1.295 Y18.265
G1 F300 X-18.47 Y-1.499 E130.85472
G0 F3600 X-18.582 Y-1.046
G1 F300 X0.791 Y18.327 E132.22159
G0 F3600 X0.286 Y18.388
G1 F300 X-18.694 Y-.592 E133.56073
G0 F3600 X-18.806 Y-.138
G1 F300 X-.217 Y18.449 E134.87222
G0 F3600 X-.722 Y18.51
G1 F300 X-18.712 Y0.521 E136.14147
G0 F3600 X-18.526 Y1.272
G1 F300 X-1.226 Y18.572 E137.36208
G0 F3600 X-1.731 Y18.632
G1 F300 X-18.341 Y2.023 E138.53397
G0 F3600 X-18.156 Y2.773
G1 F300 X-2.235 Y18.694 E139.65728
G1 X-2.165 Y18.764
G0 F3600 X-3.116 Y18.379
G1 F300 X-17.971 Y3.524 E140.70538
G0 F3600 X-17.785 Y4.275
G1 F300 X-4.026 Y18.034 E141.67616
G1 X-3.956 Y18.104
G0 F3600 X-4.937 Y17.689
G1 F300 X-17.6 Y5.026 E142.5696
G0 F3600 X-17.415 Y5.777
G1 F300 X-5.848 Y17.344 E143.38571
G1 X-5.778 Y17.414
G0 F3600 X-6.759 Y16.999
G1 F300 X-17.23 Y6.528 E144.1245
G0 F3600 X-17.045 Y7.278
G1 F300 X-7.669 Y16.654 E144.78603
G1 X-7.599 Y16.724
G0 F3600 X-8.58 Y16.309
G1 F300 X-16.86 Y8.029 E145.37022
G1 X-16.93 Y7.959
G0 F3600 X-16.507 Y8.948
G1 F300 X-9.491 Y15.964 E145.86524
G1 X-9.421 Y16.034
G0 F3600 X-10.402 Y15.619
G1 F300 X-12.133 Y13.888 E145.98737
G1 X-12.203 Y13.818
G1 F1500 E139.48737
;MESH:vase.3mf(1)
G0 F3600 X14.528 Y12.868
G1 F1500 E145.98737
G0 F3600 X14.735 Y13.053
;TYPE:WALL-OUTER
G1 F300 X19.109 Y4.717 E146.45703
G1 X19.682 Y0.00 E146.69409
G1 X19.109 Y-4.717 E146.93116
G1 X14.735 Y-13.053 E147.40082
G1 X6.979 Y-18.406 E147.87098
G1 X-2.372 Y-19.541 E148.34092
G1 X-11.182 Y-16.2 E148.811
G1 X-17.429 Y-9.148 E149.28102
G1 X-19.685 Y0.00 E149.75109
G1 X-17.429 Y9.148 E150.22116
G1 X-11.182 Y16.2 E150.69117
G1 X-2.372 Y19.541 E151.16125
G1 X6.979 Y18.406 E151.6312
G1 X14.735 Y13.053 E152.10136
G0 F3600 X14.827 Y12.876
G0 X14.915 Y12.923
G0 X19.147 Y4.728
G0 X19.722 Y0.00
G0 X19.147 Y-4.728
G0 X14.836 Y-13.141
G0 X14.91 Y-13.207
G1 F300 X19.345 Y-4.757 E152.38358
G1 X19.923 Y0.00 E152.52742
G1 X19.345 Y4.757 E152.67125
G1 X14.91 Y13.207 E152.95347
G1 X7.063 Y18.624 E153.23173
G1 X-2.402 Y19.773 E153.51
G1 X-11.314 Y16.394 E153.78871
G1 X-17.638 Y9.256 E154.06882
G1 X-19.919 Y0.00 E154.34877
G1 X-17.638 Y-9.256 E154.62873
G1 X-11.314 Y-16.394 E154.90884
G1 X-2.402 Y-19.773 E155.18755
G1 X7.063 Y-18.624 E155.46582
G1 X14.91 Y-13.207 E155.74408
G0 F3600 X15.002 Y-13.03
G0 X14.225 Y-12.625
;MESH:NONMESH
G0 F600 X14.225 Y-12.625 Z0.8
G0 F3600 X14.542 Y-12.881
;TIME_ELAPSED:640.937592
;LAYER:1
M106 S255
;TYPE:WALL-OUTER
;MESH:vase.3mf
G1 F300 X18.865 Y-4.644 E156.51758
G1 X19.43 Y0.00 E156.90658
G1 X18.865 Y4.644 E157.29558
G1 X14.542 Y12.881 E158.06908
G1 X6.889 Y18.164 E158.84233
G1 X-2.342 Y19.285 E159.61553
G1 X-11.035 Y15.989 E160.38857
G1 X-17.202 Y9.027 E161.16192
G1 X-19.427 Y0.00 E161.93498
G1 X-17.202 Y-9.027 E162.70804
G1 X-11.035 Y-15.989 E163.48139
G1 X-2.342 Y-19.285 E164.25443
G1 X6.889 Y-18.164 E165.02763
G1 X14.542 Y-12.881 E165.80088
G0 F5400 X14.634 Y-12.704
G0 X14.242 Y-12.613
;TYPE:SKIN
G1 F300 X18.485 Y-4.529 E166.56003
G1 X19.036 Y0.00 E166.93939
G1 X18.485 Y4.529 E167.31876
G1 X14.242 Y12.613 E168.07791
G1 X6.748 Y17.787 E168.83512
G1 X-2.295 Y18.885 E169.59257
G1 X-10.806 Y15.659 E170.3494
G1 X-16.847 Y8.838 E171.10702
G1 X-19.026 Y0.00 E171.86391
G1 X-16.847 Y-8.838 E172.6208
G1 X-10.806 Y-15.659 E173.37843
G1 X-2.295 Y-18.885 E174.13525
G1 X6.748 Y-17.787 E174.8927
G1 X14.242 Y-12.613 E175.64992
G0 F5400 X14.731 Y11.289
G1 F300 X12.26 Y13.761 E175.94055
G1 X12.19 Y13.831
G0 F5400 X10.433 Y15.022
G1 F300 X15.356 Y10.098 E176.51952
G1 X15.426 Y10.028
G0 F5400 X15.982 Y8.908
G1 F300 X8.605 Y16.284 E177.38694
G1 X8.535 Y16.354
G0 F5400 X6.777 Y17.546
G1 F300 X16.606 Y7.718 E178.54269
G1 X16.676 Y7.648
G0 F5400 X17.231 Y6.527
G1 F300 X6.071 Y17.686 E179.85496
G0 F5400 X5.427 Y17.765
G1 F300 X17.856 Y5.336 E181.31652
G1 X17.926 Y5.266
G0 F5400 X18.329 Y4.297
G1 F300 X4.784 Y17.843 E182.90937
G0 F5400 X4.14 Y17.921
G1 F300 X18.408 Y3.653 E184.58717
G0 F5400 X18.486 Y3.009
G1 F300 X3.496 Y17.999 E186.34988
G0 F5400 X2.852 Y18.077
G1 F300 X18.565 Y2.365 E188.19755
G0 F5400 X18.642 Y1.721
G1 F300 X2.209 Y18.155 E190.13001
G0 F5400 X1.564 Y18.234
G1 F300 X18.721 Y1.077 E192.14754
G0 F5400 X18.799 Y0.433
G1 F300 X0.921 Y18.311 E194.24985
G0 F5400 X0.277 Y18.39
G1 F300 X18.832 Y-.164 E196.43172
G0 F5400 X18.77 Y-.668
G1 F300 X-.366 Y18.468 E198.68197
G0 F5400 X-1.01 Y18.546
G1 F300 X18.71 Y-1.173 E201.00083
G0 F5400 X18.648 Y-1.677
G1 F300 X-1.653 Y18.624 E203.38807
G0 F5400 X-2.288 Y18.693
G1 F300 X18.587 Y-2.182 E205.84281
G0 F5400 X18.525 Y-2.686
G1 F300 X-2.699 Y18.538 E208.33859
G0 F5400 X-3.109 Y18.383
G1 F300 X18.464 Y-3.191 E210.87547
G0 F5400 X18.403 Y-3.695
G1 F300 X-3.519 Y18.227 E213.45333
G0 F5400 X-3.93 Y18.072
G1 F300 X18.341 Y-4.199 E216.07223
G0 F5400 X18.22 Y-4.643
G1 F300 X-4.34 Y17.916 E218.72505
G0 F5400 X-4.75 Y17.761
G1 F300 X18.025 Y-5.014 E221.40322
G0 F5400 X17.83 Y-5.385
G1 F300 X-5.161 Y17.606 E224.10678
G0 F5400 X-5.571 Y17.45
G1 F300 X17.635 Y-5.756 E226.83563
G0 F5400 X17.44 Y-6.127
G1 F300 X-5.981 Y17.295 E229.58982
G0 F5400 X-6.391 Y17.139
G1 F300 X17.246 Y-6.498 E232.36935
G0 F5400 X17.051 Y-6.869
G1 F300 X-6.801 Y16.983 E235.17416
G0 F5400 X-7.211 Y16.828
G1 F300 X16.856 Y-7.24 E238.00431
G0 F5400 X16.662 Y-7.611
G1 F300 X-7.622 Y16.673 E240.85993
G0 F5400 X-8.032 Y16.518
G1 F300 X16.467 Y-7.982 E243.74088
G0 F5400 X16.272 Y-8.353
G1 F300 X-8.442 Y16.362 E246.64712
G0 F5400 X-8.852 Y16.206
G1 F300 X16.078 Y-8.724 E249.57869
G0 F5400 X15.883 Y-9.094
G1 F300 X-9.263 Y16.051 E252.53561
G0 F5400 X-9.673 Y15.896
G1 F300 X15.688 Y-9.466 E255.51793
G0 F5400 X15.494 Y-9.837
G1 F300 X-10.084 Y15.74 E258.52565
G0 F5400 X-10.494 Y15.585
G1 F300 X15.298 Y-10.207 E261.55859
G0 F5400 X15.104 Y-10.579
G1 F300 X-10.831 Y15.356 E264.60835
G0 F5400 X-11.097 Y15.057
G1 F300 X14.91 Y-10.95 E267.66657
G0 F5400 X14.714 Y-11.32
G1 F300 X-11.363 Y14.757 E270.73302
G0 F5400 X-11.629 Y14.457
G1 F300 X14.52 Y-11.692 E273.80795
G0 F5400 X14.325 Y-12.062
G1 F300 X-11.894 Y14.156 E276.89104
G0 F5400 X-12.16 Y13.857
G1 F300 X14.13 Y-12.433 E279.98254
G0 F5400 X13.817 Y-12.686
G1 F300 X-12.425 Y13.557 E283.06846
G0 F5400 X-12.691 Y13.256
G1 F300 X13.483 Y-12.917 E286.14626
G0 F5400 X13.148 Y-13.148
G1 F300 X-12.957 Y12.957 E289.21601
G0 F5400 X-13.222 Y12.657
G1 F300 X12.813 Y-13.379 E292.27759
G0 F5400 X12.479 Y-13.61
G1 F300 X-13.488 Y12.356 E295.33105
G0 F5400 X-13.753 Y12.056
G1 F300 X12.144 Y-13.841 E298.37634
G0 F5400 X11.81 Y-14.072
G1 F300 X-14.019 Y11.757 E301.41363
G0 F5400 X-14.285 Y11.457
G1 F300 X11.474 Y-14.303 E304.44275
G0 F5400 X11.14 Y-14.534
G1 F300 X-14.55 Y11.156 E307.4637
G0 F5400 X-14.816 Y10.856
G1 F300 X10.806 Y-14.765 E310.47659
G0 F5400 X10.471 Y-14.997
G1 F300 X-15.082 Y10.557 E313.48148
G0 F5400 X-15.347 Y10.256
G1 F300 X10.136 Y-15.227 E316.47809
G0 F5400 X9.801 Y-15.458
G1 F300 X-15.613 Y9.956 E319.46658
G0 F5400 X-15.879 Y9.656
G1 F300 X9.467 Y-15.689 E322.44702
G0 F5400 X9.132 Y-15.921
G1 F300 X-16.145 Y9.357 E325.41946
G0 F5400 X-16.41 Y9.056
G1 F300 X8.798 Y-16.152 E328.38373
G0 F5400 X8.463 Y-16.382
G1 F300 X-16.676 Y8.756 E331.33982
G0 F5400 X-16.791 Y8.306
G1 F300 X8.128 Y-16.614 E334.27016
G0 F5400 X7.794 Y-16.845
G1 F300 X-16.903 Y7.852 E337.17434
G0 F5400 X-17.015 Y7.398
G1 F300 X7.459 Y-17.076 E340.05229
G0 F5400 X7.124 Y-17.307
G1 F300 X-17.126 Y6.944 E342.90397
G0 F5400 X-17.239 Y6.491
G1 F300 X6.79 Y-17.538 E345.72959
G0 F5400 X6.34 Y-17.654
G1 F300 X-17.35 Y6.037 E348.51542
G0 F5400 X-17.462 Y5.583
G1 F300 X5.836 Y-17.715 E351.25508
G0 F5400 X5.331 Y-17.776
G1 F300 X-17.574 Y5.129 E353.94853
G0 F5400 X-17.686 Y4.676
G1 F300 X4.827 Y-17.838 E356.59595
G0 F5400 X4.322 Y-17.898
G1 F300 X-17.798 Y4.222 E359.19709
G0 F5400 X-17.91 Y3.768
G1 F300 X3.818 Y-17.96 E361.75214
G0 F5400 X3.314 Y-18.022
G1 F300 X-18.022 Y3.314 E364.26109
G0 F5400 X-18.134 Y2.86
G1 F300 X2.809 Y-18.082 E366.72377
G0 F5400 X2.305 Y-18.144
G1 F300 X-18.246 Y2.406 E369.14035
G0 F5400 X-18.357 Y1.953
G1 F300 X1.8 Y-18.205 E371.51071
G0 F5400 X1.296 Y-18.266
G1 F300 X-18.469 Y1.499 E373.83493
G0 F5400 X-18.582 Y1.045
G1 F300 X0.791 Y-18.328 E376.11304
G0 F5400 X0.287 Y-18.389
G1 F300 X-18.693 Y0.591 E378.34495
G0 F5400 X-18.805 Y0.137
G1 F300 X-.217 Y-18.45 E380.53069
G0 F5400 X-.721 Y-18.511
G1 F300 X-18.711 Y-.521 E382.64618
G0 F5400 X-18.526 Y-1.272
G1 F300 X-1.226 Y-18.572 E384.68053
G0 F5400 X-1.73 Y-18.633
G1 F300 X-18.34 Y-2.023 E386.63374
G0 F5400 X-18.155 Y-2.774
G1 F300 X-2.235 Y-18.695 E388.50586
G1 X-2.165 Y-18.765
G0 F5400 X-3.115 Y-18.38
G1 F300 X-17.97 Y-3.525 E390.2527
G0 F5400 X-17.785 Y-4.276
G1 F300 X-4.026 Y-18.035 E391.87065
G1 X-3.956 Y-18.105
G0 F5400 X-4.937 Y-17.69
G1 F300 X-17.599 Y-5.027 E393.35966
G0 F5400 X-17.414 Y-5.778
G1 F300 X-5.847 Y-17.345 E394.71985
G1 X-5.777 Y-17.415
G0 F5400 X-6.758 Y-17
G1 F300 X-17.23 Y-6.528 E395.95128
G0 F5400 X-17.044 Y-7.279
G1 F300 X-7.669 Y-16.655 E397.05377
G1 X-7.599 Y-16.725
G0 F5400 X-8.58 Y-16.31
G1 F300 X-16.859 Y-8.03 E398.02737
G1 X-16.929 Y-7.96
G0 F5400 X-16.506 Y-8.949
G1 F300 X-9.49 Y-15.965 E398.8524
G1 X-9.42 Y-16.035
G0 F5400 X-10.401 Y-15.619
G1 F300 X-12.132 Y-13.888 E399.05595
G1 X-12.202 Y-13.818
G1 F1500 E392.55595
;MESH:vase.3mf(1)
G0 F5400 X14.528 Y-12.868
G1 F1500 E399.05595
G0 F5400 X14.91 Y-13.207
;TYPE:WALL-OUTER
G1 F300 X19.345 Y-4.757 E399.84947
G1 X19.923 Y0.00 E400.24793
G1 X19.345 Y4.757 E400.64638
G1 X14.91 Y13.207 E401.4399
G1 X7.063 Y18.624 E402.23275
G1 X-2.402 Y19.773 E403.02554
G1 X-11.314 Y16.394 E403.81806
G1 X-17.638 Y9.256 E404.61102
G1 X-19.919 Y0.00 E405.40368
G1 X-17.638 Y-9.256 E406.19635
G1 X-11.314 Y-16.394 E406.98931
G1 X-2.402 Y-19.773 E407.78182
G1 X7.063 Y-18.624 E408.57461
G1 X14.91 Y-13.207 E409.36747
